icons/src/fluent/svg/textbox_24_regular.svg

<svg width="24" height="24" viewBox="0 0 24 24" fill="none" xmlns="http://www.w3.org/2000/svg">
<path d="M18.25 3C19.7688 3 21 4.23122 21 5.75V18.25C21 19.7688 19.7688 21 18.25 21H5.75C4.23122 21 3 19.7688 3 18.25V5.75C3 4.23122 4.23122 3 5.75 3H18.25ZM18.25 4.5H5.75C5.05964 4.5 4.5 5.05964 4.5 5.75V18.25C4.5 18.9404 5.05964 19.5 5.75 19.5H18.25C18.9404 19.5 19.5 18.9404 19.5 18.25V5.75C19.5 5.05964 18.9404 4.5 18.25 4.5ZM14.25 11.5H6.75L6.64823 11.5068C6.28215 11.5565 6 11.8703 6 12.25C6 12.6642 6.33579 13 6.75 13H14.25L14.3518 12.9932C14.7178 12.9435 15 12.6297 15 12.25C15 11.8358 14.6642 11.5 14.25 11.5ZM6.75 15.5H17.25C17.6642 15.5 18 15.8358 18 16.25C18 16.6297 17.7178 16.9435 17.3518 16.9932L17.25 17H6.75C6.33579 17 6 16.6642 6 16.25C6 15.8703 6.28215 15.5565 6.64823 15.5068L6.75 15.5ZM17.25 7.5H6.75L6.64823 7.50685C6.28215 7.55651 6 7.8703 6 8.25C6 8.66421 6.33579 9 6.75 9H17.25L17.3518 8.99315C17.7178 8.94349 18 8.6297 18 8.25C18 7.83579 17.6642 7.5 17.25 7.5Z" fill="#212121"/>
</svg>

<svg width="24" height="24" fill="none" viewBox="0 0 24 24" xmlns="http://www.w3.org/2000/svg"><path d="M18.25 3A2.75 2.75 0 0 1 21 5.75v12.5A2.75 2.75 0 0 1 18.25 21H5.75A2.75 2.75 0 0 1 3 18.25V5.75A2.75 2.75 0 0 1 5.75 3h12.5Zm0 1.5H5.75c-.69 0-1.25.56-1.25 1.25v12.5c0 .69.56 1.25 1.25 1.25h12.5c.69 0 1.25-.56 1.25-1.25V5.75c0-.69-.56-1.25-1.25-1.25Zm-4 7h-7.5l-.102.007A.75.75 0 0 0 6.75 13h7.5l.102-.007a.75.75 0 0 0-.102-1.493Zm-7.5 4h10.5a.75.75 0 0 1 .102 1.493L17.25 17H6.75a.75.75 0 0 1-.102-1.493l.102-.007Zm10.5-8H6.75l-.102.007A.75.75 0 0 0 6.75 9h10.5l.102-.007A.75.75 0 0 0 17.25 7.5Z" fill="#212121"/></svg>
